assets/illustrations/closed_box.svg

<svg fill="none" height="280" viewBox="0 0 280 280" width="280" xmlns="http://www.w3.org/2000/svg">
    <path
        d="m87.9547 69.2084s32.1593 24.4037 81.0493-21.2272c43.419-40.52458 78.871 23.414 79.12 54.0328.322 39.664-43.42 71.4-22.193 97.452 21.228 26.052-42.096 69.072-76.225 31.841-42.454-46.314-53.9555-8.684-78.1541-8.684-17.3677 0-53.0254-43.154-28.9461-75.26 20.2623-27.016 9.212-35.983 3.8593-45.349-7.7189-13.5081 10.6137-50.1733 41.4896-32.8056z"
        fill="#dee9ff" />
    <path d="m139.987 124.697v90.561l-70.3126-30.371.3354-90.2323z" fill="#418df9" />
    <path d="m139.988 124.751v90.561l69.97-29.321v-91.0472z" fill="#a2bdff" />
    <path d="m139.987 124.697 70.312-29.45-69.76-30.9228-70.8646 30.1866z" fill="#699cff" />
    <path d="m96.1796 83.2202 70.0444 30.4878.636 22.217 19.598-8.086-.593-22.358-72.116-29.7448z"
        fill="#418df9" />
    <g fill="#fff">
        <path
            d="m162.235 157.243c1.11 0 2.01-1.643 2.01-3.669s-.9-3.669-2.01-3.669-2.01 1.643-2.01 3.669.9 3.669 2.01 3.669z" />
        <path
            d="m194.618 144.049c1.11 0 2.01-1.642 2.01-3.668 0-2.027-.9-3.669-2.01-3.669s-2.01 1.642-2.01 3.669c0 2.026.9 3.668 2.01 3.668z" />
        <path
            d="m173.883 176.612-1.305-.507c2.892-7.446 6.518-11.547 10.779-12.191 4.076-.616 7.509 2.192 8.754 3.762l-1.097.87c-.861-1.086-3.878-3.787-7.448-3.248-3.676.556-7.024 4.468-9.683 11.314z" />
    </g>
</svg>

<svg fill="none" height="280" viewBox="0 0 280 280" width="280" xmlns="http://www.w3.org/2000/svg">
    <path
        d="M87.9547 69.2084C87.9547 69.2084 120.114 93.6121 169.004 47.9812C212.423 7.45662 247.875 71.3952 248.124 102.014C248.446 141.678 204.704 173.414 225.931 199.466C247.159 225.518 183.835 268.538 149.706 231.307C107.252 184.993 95.7505 222.623 71.5519 222.623C54.1842 222.623 18.5265 179.469 42.6058 147.363C62.8681 120.347 51.8178 111.38 46.4651 102.014C38.7462 88.5059 57.0788 51.8407 87.9547 69.2084Z"
        fill="#DEE9FF" />
    <path d="M139.987 124.697V215.258L69.6744 184.887L70.0098 94.6547L139.987 124.697Z" fill="#418DF9" />
    <path d="M139.988 124.751V215.312L209.958 185.991V94.9438L139.988 124.751Z" fill="#A2BDFF" />
    <path d="M139.987 124.697L210.299 95.247L140.539 64.3242L69.6744 94.5108L139.987 124.697Z" fill="#699CFF" />
    <path
        d="M96.1796 83.2202L166.224 113.708L166.86 135.925L186.458 127.839L185.865 105.481L113.749 75.7362L96.1796 83.2202Z"
        fill="#418DF9" />
    <path
        d="M162.235 157.243C163.345 157.243 164.245 155.6 164.245 153.574C164.245 151.548 163.345 149.905 162.235 149.905C161.125 149.905 160.225 151.548 160.225 153.574C160.225 155.6 161.125 157.243 162.235 157.243Z"
        fill="white" />
    <path
        d="M194.618 144.049C195.728 144.049 196.628 142.407 196.628 140.381C196.628 138.354 195.728 136.712 194.618 136.712C193.508 136.712 192.608 138.354 192.608 140.381C192.608 142.407 193.508 144.049 194.618 144.049Z"
        fill="white" />
    <path
        d="M173.883 176.612L172.578 176.105C175.47 168.659 179.096 164.558 183.357 163.914C187.433 163.298 190.866 166.106 192.111 167.676L191.014 168.546C190.153 167.46 187.136 164.759 183.566 165.298C179.89 165.854 176.542 169.766 173.883 176.612Z"
        fill="white" />
</svg>
